X: 034
T: Frisky
B: 204 Favourite Country Dances
N: Published by Straight & Skillern, London ca.1775
F: http://imslp.org/wiki/204_Favourite_Country_Dances_(Various) p.17 #34
Z: 2014 John Chambers <jc:trillian.mit.edu>
M: 6/8
L: 1/8
K: A
% - - - - - - - - - - - - - - - - - - - - - - - - -
|: c>de {f}e>dc | B>cd {d}Tc2A | c>de {f}e>dc | B>AG A3 :|
|: TcBc {d}TcBc | dfd c2A | {d}cBc {d}cBc | dBG A3 :|
|: a>ba g>ag | f>gf f>ed | c>de edc | BAG A3 :|
|: ECE FDF | Bcd cBA | ECE FDF | dBG A3 :|
% - - - - - - - - - - - - - - - - - - - - - - - - -
%%begintext align
%% Allemand half round to the right & foot it .|.
%% D.o back again & foot it :|: gallop down 1 Cu. and
%% foot it .|. up again & cast off :|: change sides
%% with the 3d Cu. & foot it .|. back again & foot
%% it :|: hands 6 the round foot it afterwards
%% together :|:
%%endtext

%%sep 1 1 500
%%sep 1 1 500
